X: 138
T: Road to Lincoln
C: J-61
C: Jim Guinness 1981
M: 6/8
Z: Transcribed to abc by Mary Lou Knack
R: jig
K: Em
"Em"edB AGE| GAB AGF| "D"DFG AFD| "(F#m)"FA=c "D"d=cd|
"Em"edB AGE| GAB AGF| "D"DEF EDF| "Em"EFE E3 :|
|:\
"Em"efg gfe| "Bm"fed BAB| "D"def fga| "Em"ged d3 |
"Em"gfe efg| "Bm"fed BAB| "D"def fga| "Em"bag "D"fgf :| "Em - go out on"e3|]
%%text 9/1/98.  Formerly R-47
